X: 8
T:Tordion
M:6/4
L:1/4
R:Tordion
B:Thoinot Arbeau : Orchesography 1589
Z:Steve Mansfield February 2001
K:GDor
BAG c>BA | GFE F>ED | BAG c>B A/G/ | G2A G2z ::
GGG F/G/ A/B/ c | B>A A/G/4A/4 B3 |
BBB A/B/ c/B/ A/G/ | G2A G2z :||
<end>
<start>
